modules/zondicons/icons/border-outer.svg

<svg width="20" height="20" viewBox="0 0 20 20" xmlns="http://www.w3.org/2000/svg"><path d="M2 19H1V1h18v18H2zm1-2V3h14v14H3zm10-8h2v2h-2V9zM9 9h2v2H9V9zM5 9h2v2H5V9zm4-4h2v2H9V5zm0 8h2v2H9v-2z" fill="#000" fill-rule="evenodd"/></svg>

<?xml version="1.0" encoding="UTF-8" standalone="no"?>
<svg width="20px" height="20px" viewBox="0 0 20 20" version="1.1" xmlns="http://www.w3.org/2000/svg" xmlns:xlink="http://www.w3.org/1999/xlink">
    <!-- Generator: Sketch 3.7.2 (28276) - http://www.bohemiancoding.com/sketch -->
    <title>border-outer</title>
    <desc>Created with Sketch.</desc>
    <defs></defs>
    <g id="Page-1" stroke="none" stroke-width="1" fill="none" fill-rule="evenodd">
        <g id="border-outer" fill="#000000">
            <path d="M2,19 L1,19 L1,1 L2,1 L19,1 L19,2 L19,18 L19,19 L2,19 Z M3,17 L3,3 L17,3 L17,17 L3,17 Z M13,9 L15,9 L15,11 L13,11 L13,9 Z M9,9 L11,9 L11,11 L9,11 L9,9 Z M5,9 L7,9 L7,11 L5,11 L5,9 Z M9,5 L11,5 L11,7 L9,7 L9,5 Z M9,13 L11,13 L11,15 L9,15 L9,13 Z" id="Combined-Shape"></path>
        </g>
    </g>
</svg>
